images/ico/images/nac_chart.svg

<svg xmlns="http://www.w3.org/2000/svg" viewBox="-21117 -18849 900 400"><defs><style>.cls-1{fill:#fff}.cls-1,.cls-2{stroke:#95989a}.cls-2,.cls-8{fill:none}.cls-3,.cls-5{fill:#95989a}.cls-3,.cls-4{font-size:11px}.cls-3,.cls-4,.cls-5{font-family:Roboto-Regular,Roboto}.cls-4{fill:#2a3052}.cls-5{font-size:12px}.cls-6{fill:#e98024}.cls-7{stroke:none}</style></defs><g id="Group_176" data-name="Group 176" transform="translate(-1184 1053)"><g id="Rectangle_184" data-name="Rectangle 184" class="cls-1"><path class="cls-7" d="M0 0h900v400H0z" transform="translate(-19933 -19902)"/><path class="cls-8" d="M.5.5h899v399H.5z" transform="translate(-19933 -19902)"/></g><g id="Group_175" data-name="Group 175" transform="translate(-19904 -19861)"><path id="Line_58" data-name="Line 58" class="cls-2" transform="translate(105 74.5)" d="M0 0h696.561"/><path id="Line_59" data-name="Line 59" class="cls-2" transform="translate(105 129.5)" d="M0 0h696.561"/><path id="Line_60" data-name="Line 60" class="cls-2" transform="translate(105 184.5)" d="M0 0h696.561"/><path id="Line_61" data-name="Line 61" class="cls-2" transform="translate(105 239.5)" d="M0 0h696.561"/><path id="Line_62" data-name="Line 62" class="cls-2" transform="translate(105 294.5)" d="M0 0h696.561"/><text id="_100_000" data-name="100,000" class="cls-3" transform="translate(81 77)"><tspan x="-39.354" y="0">100,000</tspan></text><text id="Number_of_active_clients" data-name="Number of active clients" class="cls-4" transform="translate(140 47)"><tspan x="0" y="0">Number of active clients</tspan></text><text id="_2007" data-name="2007" class="cls-3" transform="translate(403 313)"><tspan x="0" y="0">2007</tspan></text><text id="_2003" data-name="2003" class="cls-3" transform="translate(239 313)"><tspan x="0" y="0">2003</tspan></text><text id="_2011" data-name="2011" class="cls-3" transform="translate(567 313)"><tspan x="0" y="0">2011</tspan></text><text id="_2001" data-name="2001" class="cls-3" transform="translate(157 313)"><tspan x="0" y="0">2001</tspan></text><text id="_2009" data-name="2009" class="cls-3" transform="translate(485 313)"><tspan x="0" y="0">2009</tspan></text><text id="_2005" data-name="2005" class="cls-3" transform="translate(321 313)"><tspan x="0" y="0">2005</tspan></text><text id="_2013" data-name="2013" class="cls-3" transform="translate(649 313)"><tspan x="0" y="0">2013</tspan></text><text id="_2000" data-name="2000" class="cls-3" transform="translate(116 313)"><tspan x="0" y="0">2000</tspan></text><text id="_2008" data-name="2008" class="cls-3" transform="translate(444 313)"><tspan x="0" y="0">2008</tspan></text><text id="_2004" data-name="2004" class="cls-3" transform="translate(280 313)"><tspan x="0" y="0">2004</tspan></text><text id="_2012" data-name="2012" class="cls-3" transform="translate(608 313)"><tspan x="0" y="0">2012</tspan></text><text id="_2002" data-name="2002" class="cls-3" transform="translate(198 313)"><tspan x="0" y="0">2002</tspan></text><text id="_2010" data-name="2010" class="cls-3" transform="translate(526 313)"><tspan x="0" y="0">2010</tspan></text><text id="_2006" data-name="2006" class="cls-3" transform="translate(362 313)"><tspan x="0" y="0">2006</tspan></text><text id="_2014" data-name="2014" class="cls-3" transform="translate(690 313)"><tspan x="0" y="0">2014</tspan></text><text id="_2015" data-name="2015" class="cls-3" transform="translate(731 313)"><tspan x="0" y="0">2015</tspan></text><text id="_2016" data-name="2016" class="cls-3" transform="translate(772 313)"><tspan x="0" y="0">2016</tspan></text><text id="_75_000" data-name="75,000" class="cls-3" transform="translate(81 132)"><tspan x="-33.15" y="0">75,000</tspan></text><text id="_50_000" data-name="50,000" class="cls-3" transform="translate(82 187)"><tspan x="-33.156" y="0">50,000</tspan></text><text id="_25_000" data-name="25,000" class="cls-3" transform="translate(82 242)"><tspan x="-33.15" y="0">25,000</tspan></text><text id="_0" data-name="0" class="cls-5" transform="translate(89 298)"><tspan x="-6.762" y="0">0</tspan></text><path id="Path_205" data-name="Path 205" class="cls-6" d="M0 0h26v13H0z" transform="translate(105 36)"/><path id="Rectangle_186" data-name="Rectangle 186" class="cls-6" transform="translate(735 147)" d="M0 0h23v147H0z"/><path id="Rectangle_201" data-name="Rectangle 201" class="cls-6" transform="translate(773 125)" d="M0 0h23v169H0z"/><path id="Rectangle_187" data-name="Rectangle 187" class="cls-6" transform="translate(694 194)" d="M0 0h23v100H0z"/><path id="Rectangle_188" data-name="Rectangle 188" class="cls-6" transform="translate(653 204)" d="M0 0h23v90H0z"/><path id="Path_212" data-name="Path 212" class="cls-6" d="M0-4.592h23V42H0z" transform="translate(612 252)"/><path id="Path_209" data-name="Path 209" class="cls-6" d="M0-4.523h23v36.357H0z" transform="translate(489 262.166)"/><path id="Path_207" data-name="Path 207" class="cls-6" d="M0 4.7h23v24.058H0z" transform="translate(407 265.242)"/><path id="Path_213" data-name="Path 213" class="cls-6" d="M0-1.99h23V19H0z" transform="translate(284 275)"/><path id="Rectangle_193" data-name="Rectangle 193" class="cls-6" transform="translate(243 278)" d="M0 0h23v16H0z"/><path id="Path_214" data-name="Path 214" class="cls-6" d="M0-1.059h23V23H0z" transform="translate(322 271)"/><path id="Path_206" data-name="Path 206" class="cls-6" d="M0-5.732h23V2H0z" transform="translate(200 292)"/><path id="Rectangle_200" data-name="Rectangle 200" class="cls-6" transform="translate(157 292)" d="M0 0h23v2H0z"/><path id="Path_208" data-name="Path 208" class="cls-6" d="M0 3.617h23v29.262H0z" transform="translate(448 261.121)"/><path id="Rectangle_197" data-name="Rectangle 197" class="cls-6" transform="translate(366 263)" d="M0 0h23v31H0z"/><path id="Path_211" data-name="Path 211" class="cls-6" d="M0-3.27h23v42.536H0z" transform="translate(571 254.734)"/><path id="Path_210" data-name="Path 210" class="cls-6" d="M0-17.07h23V23H0z" transform="translate(530 271)"/></g></g></svg>

<svg xmlns="http://www.w3.org/2000/svg" viewBox="-21117 -18849 900 400">
  <defs>
    <style>
      .cls-1 {
        fill: #fff;
      }

      .cls-1, .cls-2 {
        stroke: #95989a;
      }

      .cls-2, .cls-8 {
        fill: none;
      }

      .cls-3, .cls-5 {
        fill: #95989a;
      }

      .cls-3, .cls-4 {
        font-size: 11px;
      }

      .cls-3, .cls-4, .cls-5 {
        font-family: Roboto-Regular, Roboto;
      }

      .cls-4 {
        fill: #2a3052;
      }

      .cls-5 {
        font-size: 12px;
      }

      .cls-6 {
        fill: #e98024;
      }

      .cls-7 {
        stroke: none;
      }
    </style>
  </defs>
  <g id="Group_176" data-name="Group 176" transform="translate(-1184 1053)">
    <g id="Rectangle_184" data-name="Rectangle 184" class="cls-1" transform="translate(-19933 -19902)">
      <rect class="cls-7" width="900" height="400"/>
      <rect class="cls-8" x="0.5" y="0.5" width="899" height="399"/>
    </g>
    <g id="Group_175" data-name="Group 175" transform="translate(-19904 -19861)">
      <line id="Line_58" data-name="Line 58" class="cls-2" x2="696.561" transform="translate(105 74.5)"/>
      <line id="Line_59" data-name="Line 59" class="cls-2" x2="696.561" transform="translate(105 129.5)"/>
      <line id="Line_60" data-name="Line 60" class="cls-2" x2="696.561" transform="translate(105 184.5)"/>
      <line id="Line_61" data-name="Line 61" class="cls-2" x2="696.561" transform="translate(105 239.5)"/>
      <line id="Line_62" data-name="Line 62" class="cls-2" x2="696.561" transform="translate(105 294.5)"/>
      <text id="_100_000" data-name="100,000" class="cls-3" transform="translate(81 77)"><tspan x="-39.354" y="0">100,000</tspan></text>
      <text id="Number_of_active_clients" data-name="Number of active clients" class="cls-4" transform="translate(140 47)"><tspan x="0" y="0">Number of active clients</tspan></text>
      <text id="_2007" data-name="2007" class="cls-3" transform="translate(403 313)"><tspan x="0" y="0">2007</tspan></text>
      <text id="_2003" data-name="2003" class="cls-3" transform="translate(239 313)"><tspan x="0" y="0">2003</tspan></text>
      <text id="_2011" data-name="2011" class="cls-3" transform="translate(567 313)"><tspan x="0" y="0">2011</tspan></text>
      <text id="_2001" data-name="2001" class="cls-3" transform="translate(157 313)"><tspan x="0" y="0">2001</tspan></text>
      <text id="_2009" data-name="2009" class="cls-3" transform="translate(485 313)"><tspan x="0" y="0">2009</tspan></text>
      <text id="_2005" data-name="2005" class="cls-3" transform="translate(321 313)"><tspan x="0" y="0">2005</tspan></text>
      <text id="_2013" data-name="2013" class="cls-3" transform="translate(649 313)"><tspan x="0" y="0">2013</tspan></text>
      <text id="_2000" data-name="2000" class="cls-3" transform="translate(116 313)"><tspan x="0" y="0">2000</tspan></text>
      <text id="_2008" data-name="2008" class="cls-3" transform="translate(444 313)"><tspan x="0" y="0">2008</tspan></text>
      <text id="_2004" data-name="2004" class="cls-3" transform="translate(280 313)"><tspan x="0" y="0">2004</tspan></text>
      <text id="_2012" data-name="2012" class="cls-3" transform="translate(608 313)"><tspan x="0" y="0">2012</tspan></text>
      <text id="_2002" data-name="2002" class="cls-3" transform="translate(198 313)"><tspan x="0" y="0">2002</tspan></text>
      <text id="_2010" data-name="2010" class="cls-3" transform="translate(526 313)"><tspan x="0" y="0">2010</tspan></text>
      <text id="_2006" data-name="2006" class="cls-3" transform="translate(362 313)"><tspan x="0" y="0">2006</tspan></text>
      <text id="_2014" data-name="2014" class="cls-3" transform="translate(690 313)"><tspan x="0" y="0">2014</tspan></text>
      <text id="_2015" data-name="2015" class="cls-3" transform="translate(731 313)"><tspan x="0" y="0">2015</tspan></text>
      <text id="_2016" data-name="2016" class="cls-3" transform="translate(772 313)"><tspan x="0" y="0">2016</tspan></text>
      <text id="_75_000" data-name="75,000" class="cls-3" transform="translate(81 132)"><tspan x="-33.15" y="0">75,000</tspan></text>
      <text id="_50_000" data-name="50,000" class="cls-3" transform="translate(82 187)"><tspan x="-33.156" y="0">50,000</tspan></text>
      <text id="_25_000" data-name="25,000" class="cls-3" transform="translate(82 242)"><tspan x="-33.15" y="0">25,000</tspan></text>
      <text id="_0" data-name="0" class="cls-5" transform="translate(89 298)"><tspan x="-6.762" y="0">0</tspan></text>
      <path id="Path_205" data-name="Path 205" class="cls-6" d="M0,0H26V13H0Z" transform="translate(105 36)"/>
      <rect id="Rectangle_186" data-name="Rectangle 186" class="cls-6" width="23" height="147" transform="translate(735 147)"/>
      <rect id="Rectangle_201" data-name="Rectangle 201" class="cls-6" width="23" height="169" transform="translate(773 125)"/>
      <rect id="Rectangle_187" data-name="Rectangle 187" class="cls-6" width="23" height="100" transform="translate(694 194)"/>
      <rect id="Rectangle_188" data-name="Rectangle 188" class="cls-6" width="23" height="90" transform="translate(653 204)"/>
      <path id="Path_212" data-name="Path 212" class="cls-6" d="M0-4.592H23V42H0Z" transform="translate(612 252)"/>
      <path id="Path_209" data-name="Path 209" class="cls-6" d="M0-4.523H23V31.834H0Z" transform="translate(489 262.166)"/>
      <path id="Path_207" data-name="Path 207" class="cls-6" d="M0,4.7H23V28.758H0Z" transform="translate(407 265.242)"/>
      <path id="Path_213" data-name="Path 213" class="cls-6" d="M0-1.99H23V19H0Z" transform="translate(284 275)"/>
      <rect id="Rectangle_193" data-name="Rectangle 193" class="cls-6" width="23" height="16" transform="translate(243 278)"/>
      <path id="Path_214" data-name="Path 214" class="cls-6" d="M0-1.059H23V23H0Z" transform="translate(322 271)"/>
      <path id="Path_206" data-name="Path 206" class="cls-6" d="M0-5.732H23V2H0Z" transform="translate(200 292)"/>
      <rect id="Rectangle_200" data-name="Rectangle 200" class="cls-6" width="23" height="2" transform="translate(157 292)"/>
      <path id="Path_208" data-name="Path 208" class="cls-6" d="M0,3.617H23V32.879H0Z" transform="translate(448 261.121)"/>
      <rect id="Rectangle_197" data-name="Rectangle 197" class="cls-6" width="23" height="31" transform="translate(366 263)"/>
      <path id="Path_211" data-name="Path 211" class="cls-6" d="M0-3.27H23V39.266H0Z" transform="translate(571 254.734)"/>
      <path id="Path_210" data-name="Path 210" class="cls-6" d="M0-17.07H23V23H0Z" transform="translate(530 271)"/>
    </g>
  </g>
</svg>
